X: 141
T: Xiu jixiang hua wen The hat with the spiral ornament on the top
%%abc-version 2.0
%%abcx-abcm2ps-target-version 5.9.1 (29 Sep 2008)
%%abc-creator hum2abc beta
%%abcx-conversion-date 2013/10/02 07:44:27
%%abc-edited-by Helmut Schaffrath
%%humdrum-veritas 2916084870
%%humdrum-veritas-data 3409196181
%%continueall 1
%%barnumbers 0
L: 1/8
M: 2/4
K: C
G,2D2 [I:setbarnb 1]| 
D E D G, | 
G2A c | 
G4 | 
E GA2 | 
cG2D | 
G D E G | 
D4 | 
G,3D | 
D E D A, | 
G2A c | 
C4 | 
A, CD2 | 
D EG2 | 
G, A, C D | 
G,4 | 
C A, G, G | 
D2G2 | 
C A, G, G | 
D4 | 
D EG2 | 
E G E D | 
G, A, C D | 
G,4 | 
C A,/ A,/ G, G | 
D4 | 
C A,/ A,/ G, G | 
D4 | 
D EG2 | 
E G E D | 
G, A, C D | 
G,4 | 
C A, G, G | 
D2G2 | 
C A, G, G | 
D4 | 
D EG2 | 
E G E D | 
G, A, C D | 
G,4 | 
C A,/ A,/ G, G | 
D4 | 
C A,/ A,/ G, G | 
D4 | 
D EG2 | 
E G E D | 
G, A, C D | 
G,4 |]  



